icons/xamarin.svg

<?xml version="1.0" encoding="UTF-8" standalone="no"?>
<svg width="256px" height="228px" viewBox="0 0 256 228" version="1.1" xmlns="http://www.w3.org/2000/svg" xmlns:xlink="http://www.w3.org/1999/xlink" preserveAspectRatio="xMidYMid">
    <g>
        <path d="M73.8663206,0 C66.952309,0.0146617449 60.184271,3.93931348 56.7037125,9.9265042 L2.56976851,103.963223 C-0.856589505,109.966444 -0.856589505,117.813085 2.56976851,123.816305 L56.7037125,217.853023 C60.1846366,223.840262 66.952309,227.765965 73.8663206,227.779527 L182.133826,227.779527 C189.047838,227.764865 195.815506,223.840262 199.296431,217.853023 L253.430366,123.816305 C256.856721,117.813085 256.856368,109.966444 253.430366,103.963223 L199.296431,9.9265042 C195.815506,3.93931348 189.047838,0.0135621543 182.133826,0 L73.8663206,0 L73.8663206,0 Z M74.8488536,55.0126186 C74.9975819,54.9979569 75.1535758,54.9979569 75.3027674,55.0126186 L93.9772836,55.0126186 C94.8039203,55.0297239 95.6057607,55.5074519 96.018567,56.2249969 L127.69764,112.677374 C127.857095,112.956484 127.95984,113.267458 127.998827,113.586646 C128.037837,113.267385 128.140483,112.956386 128.300014,112.677374 L159.903262,56.2249969 C160.329167,55.4857038 161.168569,55.0053365 162.020021,55.0126186 L180.694546,55.0126186 C182.348195,55.0272804 183.586572,57.1101012 182.811656,58.5740505 L151.889065,113.889776 L182.811656,169.129724 C183.659919,170.602081 182.39107,172.781473 180.694546,172.766909 L162.020021,172.766909 C161.153689,172.759578 160.309324,172.245978 159.903262,171.478754 L128.300014,115.026377 C128.140556,114.747267 128.037813,114.436267 127.998827,114.117106 C127.959816,114.43634 127.857168,114.74739 127.69764,115.026377 L96.018567,171.478754 C95.624559,172.224278 94.8184519,172.732966 93.9772836,172.766909 L75.3027674,172.766909 C73.6062411,172.78157 72.3377353,170.602081 73.1859985,169.129724 L104.10858,113.889776 L73.1859985,58.5740505 C72.4447465,57.2383669 73.3491119,55.297716 74.8488536,55.0126186 L74.8488536,55.0126186 L74.8488536,55.0126186 Z" fill="#3498DB"></path>
    </g>
</svg>

<svg xmlns="http://www.w3.org/2000/svg" viewBox="0 0 256 227.78">
  <path fill="#3498db" d="M73.866 0c-6.914.015-13.682 3.94-17.162 9.927L2.57 103.963c-3.427 6.003-3.427 13.85 0 19.853l54.134 94.037c3.48 5.987 10.248 9.913 17.162 9.927h108.268c6.914-.015 13.682-3.94 17.162-9.927l54.134-94.037c3.427-6.003 3.426-13.85 0-19.853L199.296 9.927C195.816 3.939 189.048.014 182.134 0zm.983 55.013c.149-.015.305-.015.454 0h18.674a2.462 2.462 0 0 1 2.042 1.212l31.679 56.452c.16.28.262.59.3.91.04-.32.142-.63.302-.91l31.603-56.452a2.47 2.47 0 0 1 2.117-1.212h18.675c1.653.014 2.892 2.097 2.117 3.561l-30.923 55.316 30.923 55.24c.848 1.472-.42 3.651-2.117 3.637H162.02a2.47 2.47 0 0 1-2.117-1.288L128.3 115.026c-.16-.279-.262-.59-.301-.909a2.43 2.43 0 0 1-.301.91l-31.68 56.452a2.468 2.468 0 0 1-2.04 1.288H75.302c-1.697.015-2.965-2.165-2.117-3.637l30.923-55.24-30.923-55.316c-.741-1.336.163-3.276 1.663-3.561z"/>
</svg>
